!!!OTL: Die zehen Gebote Gottes, / auff den tho In gottes name fare wir. Martin Luther.
!!!ARE: Europa, Mitteleuropa, Deutschland
!!!SCT: A0620A
!!!TXL: @@GMH
!!!YEM: Copyright 1995, estate of Helmut Schaffrath.
**kern	**text
*M4/1	*
*met(c|)	*
*clefC4	*
*k[b-]	*
*G:dor	*
!LO:TX:a:t=dor. tr. (?)	!
2ryy	.
{2G	Dys
=1	=1
1G	ſynd
1G	die
1G	heyl-
1G	-gen
=2	=2
1A	ʒehn
1B-	ge-
1c	-bot,
2r}	.
{2c	die
=3	=3
1d	vnns
1d	gab
1c	vn-
1G	-ſer
=4	=4
1A	her-
1B-	-re
1c	Gott,
2r}	.
{2c	durch
=5	=5
1d	Mo-
1d	-ſen
1c	ſei-
1G	-nen
=6	=6
1A	die-
1G	-ner
1F	trew,
2r}	.
{2F	hoch
=7	=7
1A	auff
1B-	dem
0c	berg
=8	=8
1B-X	Si-
1G	-na-
!LO:TX:a:t=*	!
1B-}	y.
{1A	(Ky-
=9	=9
1G	-ri-
1G	-o-
1G/ll}	-leys.
==	==
!!!GTL: Geistliche Volkslieder
!!!AGN: Romanze, Ballade, Lied, religioeses Lied
!! Erfurter Enchiridion I. 1524 No. 1
!!!ONB: ESAC (Essen Associative Code) Database: ALTDEU
!!!AMT: simple quadruple
!!!AIN: vox
!!!EED: Helmut Schaffrath
!!!EEV: 1.0
!!!RDF**kern: l = terminal long
!!!AMD: Dorian
!!!URL-scan: https://rosdok.uni-rostock.de/mcrviewer/recordIdentifier/rosdok_ppn738218359/iview2/phys_0802.iview2?x=-1021.1722681204792&y=11.982528130989522&scale=0.35534665417946304&rotation=0&layout=singlePageLayout&logicalDiv=log_0007
!!!ENC: Anna Maria Matuszewska
!!!EEV: 2024/25/03
*-	*-
